X:1
T: Mrs. Grant of Laggan's Favourite
C:
R:Jig
Q:180
K:D
M:6/8
L:1/16
|:A2|d4e2 f4d2|f2e2d2 c2B2A2|d2c2B2 A2G2F2|B2G2E2 E4A2|
d4e2 f4d2|f2e2d2 c2B2A2|B2d2B2 c2e2c2|d6D4A2|
F2D2F2 A2F2A2|B2G2B2 A2F2D2|F2D2F2 A2G2F2|G2E2E2 E4A2|
F2D2F2 A2F2A2|B2G2B2 A2F2A2|B2d2B2 c2e2c2|d6D4:|
